X: 2830
T: Barbara
R: polka
M: 2/4
K: Dmajor
x2
L: 1/16
|:FG|A2 F2 d2 A2|f2 d2 A2 d2|c2 ed cA Bc|dc de f2 FG|
A2 F2 d2 A2|f2 d2 A2 d2|c2 ed cA Bc|d6- d3/2x/2:|
|:c4>B4|A6- A3/2x/2|^G2 B2 d2 B2|c4 A4|
c4- c3/2x/2 B2|A6- A3/2x/2|(3d2c2B2 (3d2c2B2|A6- A3/2x/2:|
|:D2 DD D2 D2|E2 D2 C2 D2|B,2 D2 =G2 A2|B4- B3/2x2x/2|
D4 =c3B|A6- A3/2x/2|D4 B3A|G4- G3/2x2x/2|
D2 DD D2 D2|E2 D2 ^C2 D2|B,2 D2 G2 A2|B4- B3/2x2x/2|
=c=c =c=c =c2 A2|BB BB B2 G2|AA AA A2 B2|d2 x2 d4|
=c=c =c=c =c2 A2|BB BB B2 G2|AA AA A2 F2|G2 x2 G4:|
|:Bd ef g4-|g3-g/2x/2 f2 e2|d2 =c2 B4-|B3-B/2x/2 G2 B2|
d2 g2 f4-|f3/2x/2 g2 a4|f2 d2 g2 gg|g2 a2 b4|
Bd ef g4-|g3-g/2x/2 f2 e2|d2 =c2 B4-|B3-B/2x/2 G2 B2|
d2 g2 f4-|f3/2x/2 g2 a4|f2 d2 g2 gg|g2 a2 g4:|

